X:3
T:Erie Canal Stick Dance (Bampton) (Thornden)
M:4/4
O:England; Oxfordshire; Bampton.
R:Hornpipe
P:A(ABC)4
K:G
P:A
GF | E2 E2 GF G2 | AG A2 B4 | B2 B2 B2 EF | GE F2 E2 B2 |
E2 E2 GF G2 | AG A2 B4 | B2 B2 B2 EF | GE F2 E2 |]
P:B
B2 | d2 B2 d2 B2 | d2 B2 A2 GA | B2 G2 B2 G2 | B2 G2 F2 GF |
E2 E2 GF G2 | AG A2 B4 | B2 B2 B2 EF | GE F2 E2 |]
P:C
z2 | B4 B4 | BGBG A4 | B4 B2 GA | BGAF G2 Bc |
dddB cc c2 | dddB c2 AA | BB BG cc cA | BG AF G2 |]

